!!!OTL: Pentland Hills 
!!!id: HA033
**kern
*clefF4
*k[b-]
*F:
*M3/4
{8.a
16g
=1
2f
8.cc
16b-
=2
4b-
8a
8r
8.ff
16ee
=3
4.dd
8ee
8ff
8cc
=4
4b-
8a}
8r
{16a
16b-
8cc
=5
4.d
8dd
8cc
8b-
=6
4.a
8b-
4g
=7
2f}
{8.a
16g
=8
4g
4f
8cc
8b-
=9
4b-
4a
8.ff
16ee
=10
4.dd
8ee
8ff
8cc
=11
2a}
{16a
16b-
8cc
=12
4.d
8dd
8cc
8b-
=13
4.a
8b-
4g
=14
2f}
{8.a
16g
=15
4.f
8f
8ff
8ee
=16
2dd
8cc
8a
=17
4ff
8ee
8dd
8ee
8cc#
=18
2dd}
{8.dd
16ee
=19
4ff
4cc
4dd
=20
16dd
8.cc
8b-
8a
8g
8f
=21
4cc
8dd
8cc
8b-
8a
=22
2g}
{8.f
16e
=23
16f
8d
8e
8f
16f
4f
=24yy
8.cc
16b-
=25
2a
8.ff
16ee
=26
4.dd
8ee
8ff
8cc
=27
2a}
{16cc
16b-
16a
16g
=28
2f
16f
16g
8a
=29
2d
16dd
16ee
8ff
=30
4.a
8b-
4g
=31
2f}
==
*-
!!!minrhy: 16
!!!meter: 3/4 
!!!cut: Pentland Hills 
!!!key: HA033  16  F 3/4 
!!!bem: Vorschlge, Triller
!!!fog: a--b--aw-b--c--d--aw-bw-
!! Haydn: Volksliedbearbeitungen, Bd1
